X:18
T:Les Bouffons
C:Thoinot Arbeau
O:16e sicle
M:C|
L:1/4
K:F
V:1
FGAA | B2B2 | AGAF | G2G2 | FGAA | B2B2 | AFGG | F2F2 ::
c2dc | B2B2 | AGAB | c2c2 | c2dc | B2B2 | AFGG | F2F2 :|
V:2 clef=perc stafflines=1 staffscale=0.7
[K:none]A4 | A4 | A4 | A4 | A2A2 | A2A2 | A2A2 | A2A2 ::
A2AA | A2AA | A2AA | A2AA | A2AA | A2AA | A2AA | A2A2 :|
